X:1
T:Hummel, CM
T:Hummel, CM
T:Henrich Christoph Zeuner, 1832
T:Public Domain Courtesy of the Cyber Hymnal™
C:Henrich Christoph Zeuner, 1832
Z:Public Domain
Z:Courtesy of the Cyber Hymnal™
%%score ( 1 2 ) ( 3 4 )
L:1/8
Q:1/4=130
M:2/2
K:Ab
V:1 treble 
V:2 treble 
V:3 bass 
V:4 bass 
V:1
 E2 | [EA]4 [FA]4 | [EA]6 [GB]2 | [Ac]4 [Ad]4 | [Ac]6 [Ae]2 | [Gd]2 [Ac]2 [EB]2 [=DA]2 | %6
 [EG]6 [EG]2 | [DG]4 [DG]4 | (A2 E2) [CE]4 | (A2 c2) B2 A2 | (A4 G2) [Gd]2 | %11
 [Ac]3 [FB] [EA]2 [EG]2 | [EA]6 |] %13
V:2
 E2 | x8 | x8 | x8 | x8 | x8 | x8 | x8 | C4 x4 | E4 E4 | E6 x2 | x8 | x6 |] %13
V:3
 E,2 | [A,,C]4 [A,D]4 | [A,C]6 [E,E]2 | [A,,E]4 [A,F]4 | [A,E]6 [CE]2 | %5
 [B,E]2 [A,E]2 [G,E]2 [F,B,]2 | [E,B,]6 [E,B,]2 | [E,B,]4 [E,B,]4 | [E,A,]4 [E,A,]4 | %9
 (C2 A,2) (D2 C2) | (C4 B,2) [E,E]2 | [A,,E]3 [D,D] [E,C]2 [E,B,]2 | [A,,C]6 |] %13
V:4
 E,2 | x8 | x8 | x8 | x8 | x8 | x8 | x8 | x8 | E,4 E,4 | E,6 x2 | x8 | x6 |] %13

